svg/account_question_outline.svg

<svg xmlns="http://www.w3.org/2000/svg" viewBox="0 0 24 24"><path d="M20.5 14.5V16H19v-1.5zm-2-5H17V9a3 3 0 0 1 3-3 3 3 0 0 1 3 3c0 .97-.5 1.88-1.29 2.41l-.3.19c-.57.4-.91 1.01-.91 1.7v.2H19v-.2c0-1.19.6-2.3 1.59-2.95l.29-.19c.39-.26.62-.69.62-1.16A1.5 1.5 0 0 0 20 7.5 1.5 1.5 0 0 0 18.5 9zM9 13c2.67 0 8 1.34 8 4v3H1v-3c0-2.66 5.33-4 8-4m0-9a4 4 0 0 1 4 4 4 4 0 0 1-4 4 4 4 0 0 1-4-4 4 4 0 0 1 4-4m0 10.9c-2.97 0-6.1 1.46-6.1 2.1v1.1h12.2V17c0-.64-3.13-2.1-6.1-2.1m0-9A2.1 2.1 0 0 0 6.9 8 2.1 2.1 0 0 0 9 10.1 2.1 2.1 0 0 0 11.1 8 2.1 2.1 0 0 0 9 5.9"/></svg>

<?xml version="1.0" encoding="UTF-8"?><!DOCTYPE svg PUBLIC "-//W3C//DTD SVG 1.1//EN" "http://www.w3.org/Graphics/SVG/1.1/DTD/svg11.dtd"><svg xmlns="http://www.w3.org/2000/svg" xmlns:xlink="http://www.w3.org/1999/xlink" version="1.1" id="mdi-account-question-outline" width="24" height="24" viewBox="0 0 24 24"><path d="M20.5,14.5V16H19V14.5H20.5M18.5,9.5H17V9A3,3 0 0,1 20,6A3,3 0 0,1 23,9C23,9.97 22.5,10.88 21.71,11.41L21.41,11.6C20.84,12 20.5,12.61 20.5,13.3V13.5H19V13.3C19,12.11 19.6,11 20.59,10.35L20.88,10.16C21.27,9.9 21.5,9.47 21.5,9A1.5,1.5 0 0,0 20,7.5A1.5,1.5 0 0,0 18.5,9V9.5M9,13C11.67,13 17,14.34 17,17V20H1V17C1,14.34 6.33,13 9,13M9,4A4,4 0 0,1 13,8A4,4 0 0,1 9,12A4,4 0 0,1 5,8A4,4 0 0,1 9,4M9,14.9C6.03,14.9 2.9,16.36 2.9,17V18.1H15.1V17C15.1,16.36 11.97,14.9 9,14.9M9,5.9A2.1,2.1 0 0,0 6.9,8A2.1,2.1 0 0,0 9,10.1A2.1,2.1 0 0,0 11.1,8A2.1,2.1 0 0,0 9,5.9Z" /></svg>
